svg/education/book_4_fill.svg

<?xml version="1.0" encoding="UTF-8"?>
<svg width="24px" height="24px" viewBox="0 0 24 24" version="1.1" xmlns="http://www.w3.org/2000/svg" xmlns:xlink="http://www.w3.org/1999/xlink">
    <title>book_4_fill</title>
    <g id="页面-1" stroke="none" stroke-width="1" fill="none" fill-rule="evenodd">
        <g id="Education" transform="translate(-624.000000, -48.000000)">
            <g id="book_4_fill" transform="translate(624.000000, 48.000000)">
                 <path d="M24,0 L24,24 L0,24 L0,0 L24,0 Z M12.5934901,23.257841 L12.5819402,23.2595131 L12.5108777,23.2950439 L12.4918791,23.2987469 L12.4918791,23.2987469 L12.4767152,23.2950439 L12.4056548,23.2595131 C12.3958229,23.2563662 12.3870493,23.2590235 12.3821421,23.2649074 L12.3780323,23.275831 L12.360941,23.7031097 L12.3658947,23.7234994 L12.3769048,23.7357139 L12.4804777,23.8096931 L12.4953491,23.8136134 L12.4953491,23.8136134 L12.5071152,23.8096931 L12.6106902,23.7357139 L12.6232938,23.7196733 L12.6232938,23.7196733 L12.6266527,23.7031097 L12.609561,23.275831 C12.6075724,23.2657013 12.6010112,23.2592993 12.5934901,23.257841 L12.5934901,23.257841 Z M12.8583906,23.1452862 L12.8445485,23.1473072 L12.6598443,23.2396597 L12.6498822,23.2499052 L12.6498822,23.2499052 L12.6471943,23.2611114 L12.6650943,23.6906389 L12.6699349,23.7034178 L12.6699349,23.7034178 L12.678386,23.7104931 L12.8793402,23.8032389 C12.8914285,23.8068999 12.9022333,23.8029875 12.9078286,23.7952264 L12.9118235,23.7811639 L12.8776777,23.1665331 C12.8752882,23.1545897 12.8674102,23.1470016 12.8583906,23.1452862 L12.8583906,23.1452862 Z M12.1430473,23.1473072 C12.1332178,23.1423925 12.1221763,23.1452606 12.1156365,23.1525954 L12.1099173,23.1665331 L12.0757714,23.7811639 C12.0751323,23.7926639 12.0828099,23.8018602 12.0926481,23.8045676 L12.108256,23.8032389 L12.3092106,23.7104931 L12.3186497,23.7024347 L12.3186497,23.7024347 L12.3225043,23.6906389 L12.340401,23.2611114 L12.337245,23.2485176 L12.337245,23.2485176 L12.3277531,23.2396597 L12.1430473,23.1473072 Z" id="MingCute" fill-rule="nonzero"></path>
                <path d="M14.1121,3.74436 L21.5556,7.50517 C22.2205,7.84112 22.5196,8.59793 22.3192,9.28014 C21.9281,10.6114 21.9721,11.1694 22.2271,11.8013 C22.4843,12.439 22.3056,13.25 21.6396,13.6717 L11.3564,20.181 C10.9248,20.4542 10.376,20.4962 9.89935,20.263 L6.05902772,18.3681074 L6.05902772,18.3681074 L4.45466861,17.5631024 L4.45466861,17.5631024 L3.3147029,16.9807486 L3.3147029,16.9807486 L2.61935644,16.6161315 L2.61935644,16.6161315 L2.25891498,16.4203332 L2.25891498,16.4203332 L1.99784,16.2704 L1.99784,16.2704 C0.978593,15.6551 0.661234,14.4053 0.665723311,13.4489 C0.670479,12.4776 1.00406,11.2651 1.93052,10.5984 L2.23122413,10.3919735 L2.23122413,10.3919735 L3.08869037,9.83087121 L3.08869037,9.83087121 L5.13397057,8.52495179 L5.13397057,8.52495179 L12.6424,3.81015 L12.6424,3.81015 C13.0889,3.53153 13.6458,3.50879 14.1121,3.74436 Z M20.0332,10.6884 L11.3601,16.1786 L11.252425,16.2406125 L11.141,16.2931 C11.031,16.7007 10.9926,16.9942 10.9966,17.2663 C10.999075,17.42845 11.0164563,17.5940313 11.0522453,17.7827453 L11.0943,17.9799 L20.2418,12.1895 L20.1697231,11.9414463 C20.0838602,11.6116648 20.0387231,11.2844907 20.0315269,10.945287 L20.0332,10.6884 Z M2.79954,12.6779 C2.7221,12.8834 2.66729,13.1469 2.66573667,13.4585 C2.66258,14.1302 2.9033,14.4809 3.03144,14.5582 L3.33878481,14.7327827 L3.33878481,14.7327827 L3.96509578,15.0660297 L3.96509578,15.0660297 L5.73461671,15.96917 L5.73461671,15.96917 L9.01149,17.5987 L9.01149,17.5987 C9.00334,17.4983 8.99838,17.3976 8.99686,17.2961 C8.99134,16.92586 9.0315608,16.563108 9.11095344,16.1834216 L9.17774,15.8951 L2.79954,12.6779 Z M13.964,6.91416 C13.4747,6.6579 12.8704,6.84676 12.6141,7.33599 C12.3761071,7.790275 12.5219857,8.34381301 12.9357207,8.6257562 L13.0359,8.68583 L15.1359,9.78583 C15.6252,10.0421 16.2295,9.85323 16.4858,9.364 C16.7237,8.909715 16.577901,8.35617699 16.1641779,8.0742338 L16.064,8.01416 L13.964,6.91416 Z" id="形状" fill="#09244B"></path>
            </g>
        </g>
    </g>
</svg>

<svg xmlns="http://www.w3.org/2000/svg" width="24" height="24"><g fill="none" fill-rule="evenodd"><path d="M24 0v24H0V0h24ZM12.593 23.258l-.011.002-.071.035-.02.004-.014-.004-.071-.035c-.01-.004-.019-.001-.024.005l-.004.01-.017.428.005.02.01.013.104.074.015.004.012-.004.104-.074.012-.016.004-.017-.017-.427c-.002-.01-.009-.017-.017-.018Zm.265-.113-.013.002-.185.093-.01.01-.003.011.018.43.005.012.008.007.201.093c.012.004.023 0 .029-.008l.004-.014-.034-.614c-.003-.012-.01-.02-.02-.022Zm-.715.002a.023.023 0 0 0-.027.006l-.006.014-.034.614c0 .012.007.02.017.024l.015-.002.201-.093.01-.008.004-.011.017-.43-.003-.012-.01-.01-.184-.092Z"/><path fill="#09244B" d="m14.112 3.744 7.444 3.761a1.51 1.51 0 0 1 .763 1.775c-.39 1.331-.347 1.89-.092 2.521.257.638.079 1.449-.587 1.87l-10.284 6.51c-.431.273-.98.315-1.457.082l-3.84-1.895-1.604-.805-1.14-.582-.696-.365-.36-.196-.261-.15C.978 15.655.66 14.405.666 13.45c.004-.971.338-2.184 1.265-2.85l.3-.207.858-.561 2.045-1.306 7.508-4.715a1.499 1.499 0 0 1 1.47-.066Zm5.921 6.944-8.673 5.49-.108.063-.111.052c-.11.408-.148.701-.144.973.002.162.02.328.055.517l.042.197 9.148-5.79-.072-.249a4.27 4.27 0 0 1-.138-.996l.001-.257ZM2.8 12.678a2.256 2.256 0 0 0-.134.78c-.003.672.237 1.023.365 1.1l.308.175.626.333 1.77.903L9.01 17.6a4.584 4.584 0 0 1-.014-.303c-.006-.37.035-.733.114-1.113l.067-.288L2.8 12.678Zm11.164-5.764a1 1 0 0 0-1.028 1.712l.1.06 2.1 1.1a1 1 0 0 0 1.028-1.712l-.1-.06-2.1-1.1Z"/></g></svg>
